newicons/photo_studio_pro.svg

<?xml version="1.0" encoding="UTF-8" standalone="no"?>
<svg
   viewBox="0 0 48 48"
   version="1.1"
   id="svg1"
   sodipodi:docname="photo_studio_pro.svg"
   inkscape:version="1.2.2 (b0a8486541, 2022-12-01)"
   xml:space="preserve"
   xmlns:inkscape="http://www.inkscape.org/namespaces/inkscape"
   xmlns:sodipodi="http://sodipodi.sourceforge.net/DTD/sodipodi-0.dtd"
   xmlns="http://www.w3.org/2000/svg"
   xmlns:svg="http://www.w3.org/2000/svg"><sodipodi:namedview
     id="namedview1"
     pagecolor="#505050"
     bordercolor="#eeeeee"
     borderopacity="1"
     inkscape:showpageshadow="0"
     inkscape:pageopacity="0"
     inkscape:pagecheckerboard="0"
     inkscape:deskcolor="#505050"
     inkscape:zoom="17.812501"
     inkscape:cx="21.557894"
     inkscape:cy="19.34035"
     inkscape:window-width="1912"
     inkscape:window-height="1054"
     inkscape:window-x="0"
     inkscape:window-y="0"
     inkscape:window-maximized="1"
     inkscape:current-layer="svg1"
     showgrid="false" /><defs
     id="defs1"><style
       id="style1">.a { fill:none;stroke:#fff;stroke-linecap:round;stroke-linejoin:round; }
</style><style
       id="style5064">.b{fill:none;stroke:#fff;stroke-linecap:round;stroke-linejoin:round;}</style></defs><g
     id="g1456"><path
       style="fill:none;stroke:#ffffff;stroke-linecap:round;stroke-linejoin:round;stroke-opacity:1;stop-color:#000000"
       d="M 37.768608,24 A 13.768608,13.768608 0 0 1 24,37.768608 13.768608,13.768608 0 0 1 10.231392,24 13.768608,13.768608 0 0 1 24,10.231392 13.768608,13.768608 0 0 1 37.768608,24 Z"
       id="path1412" /><g
       id="g1441"><path
         style="fill:none;stroke:#ffffff;stroke-linecap:round;stroke-linejoin:round;stroke-opacity:1;stop-color:#000000"
         d="m 20.631132,21.520973 2.251036,-1.549851 c 2.764491,-1.903367 10.240804,-2.865822 14.646867,1.515906"
         id="path1410" /><path
         style="fill:none;stroke:#ffffff;stroke-linecap:round;stroke-linejoin:round;stroke-opacity:1;stop-color:#000000"
         d="m 27.368868,26.479027 -2.251036,1.549851 C 22.353341,29.932245 14.877028,30.8947 10.470965,26.512972"
         id="path1408" /><path
         style="fill:none;stroke:#ffffff;stroke-linecap:round;stroke-linejoin:round;stroke-opacity:1;stop-color:#000000"
         d="m 22.731664,20.014254 2.732106,0.06927 c 3.355291,0.08507 9.969472,3.700894 10.958537,9.835606"
         id="path1406" /><path
         style="fill:none;stroke:#ffffff;stroke-linecap:round;stroke-linejoin:round;stroke-opacity:1;stop-color:#000000"
         d="M 25.268336,27.985746 22.53623,27.916478 C 19.180939,27.831405 12.566758,24.215582 11.577693,18.08087"
         id="path1404" /><path
         style="fill:none;stroke:#ffffff;stroke-linecap:round;stroke-linejoin:round;stroke-opacity:1;stop-color:#000000"
         d="m 25.316657,20.029955 2.169605,1.66193 c 2.664486,2.041012 5.890142,8.853995 3.084418,14.398439"
         id="path1402" /><path
         style="fill:none;stroke:#ffffff;stroke-linecap:round;stroke-linejoin:round;stroke-opacity:1;stop-color:#000000"
         d="M 22.683342,27.970049 20.513737,26.30812 C 17.849253,24.267098 14.623596,17.454118 17.42932,11.909674"
         id="path1400" /><path
         style="fill:none;stroke:#ffffff;stroke-linecap:round;stroke-linejoin:round;stroke-opacity:1;stop-color:#000000"
         d="m 27.39873,21.562082 0.77839,2.619792 c 0.955938,3.217359 -0.439022,10.62517 -5.967843,13.461557"
         id="path1398" /><path
         style="fill:none;stroke:#ffffff;stroke-linecap:round;stroke-linejoin:round;stroke-opacity:1;stop-color:#000000"
         d="m 20.601267,26.437927 -0.77839,-2.619792 c -0.955933,-3.217362 0.439025,-10.625172 5.967846,-13.461558"
         id="path1396" /><path
         style="fill:none;stroke:#ffffff;stroke-linecap:round;stroke-linejoin:round;stroke-opacity:1;stop-color:#000000"
         d="M 28.182605,24.025408 27.27246,26.60239 c -1.117746,3.164784 -6.600495,8.337892 -12.74059,7.382818"
         id="path1394" /><path
         style="fill:none;stroke:#ffffff;stroke-linecap:round;stroke-linejoin:round;stroke-opacity:1;stop-color:#000000"
         d="m 19.817393,23.9746 0.910143,-2.576982 C 21.845288,18.232834 27.328035,13.059725 33.46813,14.0148"
         id="path1392" /></g><path
       style="fill:none;stroke:#ffffff;stroke-linecap:round;stroke-linejoin:round;stroke-opacity:1;stop-color:#000000"
       d="M 45.5,24 A 21.5,21.5 0 0 1 24,45.5 21.5,21.5 0 0 1 2.5,24 21.5,21.5 0 0 1 24,2.5 21.5,21.5 0 0 1 45.5,24 Z"
       id="path316" /></g></svg>

<?xml version="1.0" encoding="UTF-8"?><svg id="b" xmlns="http://www.w3.org/2000/svg" viewBox="0 0 48 48"><defs><style>.t{fill:none;stroke:#fff;stroke-linecap:round;stroke-linejoin:round;}</style></defs><g id="f"><path id="g" class="t" d="M37.7686,24c0,7.6042-6.1644,13.7686-13.7686,13.7686s-13.7686-6.1644-13.7686-13.7686,6.1644-13.7686,13.7686-13.7686,13.7686,6.1644,13.7686,13.7686Z"/><g id="h"><path id="i" class="t" d="M20.6311,21.521l2.251-1.5499c2.7645-1.9034,10.2408-2.8658,14.6469,1.5159"/><path id="j" class="t" d="M27.3689,26.479l-2.251,1.5499c-2.7645,1.9034-10.2408,2.8658-14.6469-1.5159"/><path id="k" class="t" d="M22.7317,20.0143l2.7321.0693c3.3553.0851,9.9695,3.7009,10.9585,9.8356"/><path id="l" class="t" d="M25.2683,27.9857l-2.7321-.0693c-3.3553-.0851-9.9695-3.7009-10.9585-9.8356"/><path id="m" class="t" d="M25.3167,20.03l2.1696,1.6619c2.6645,2.041,5.8901,8.854,3.0844,14.3984"/><path id="n" class="t" d="M22.6833,27.97l-2.1696-1.6619c-2.6645-2.041-5.8901-8.854-3.0844-14.3984"/><path id="o" class="t" d="M27.3987,21.5621l.7784,2.6198c.9559,3.2174-.439,10.6252-5.9678,13.4616"/><path id="p" class="t" d="M20.6013,26.4379l-.7784-2.6198c-.9559-3.2174.439-10.6252,5.9678-13.4616"/><path id="q" class="t" d="M28.1826,24.0254l-.9101,2.577c-1.1177,3.1648-6.6005,8.3379-12.7406,7.3828"/><path id="r" class="t" d="M19.8174,23.9746l.9101-2.577c1.1178-3.1648,6.6005-8.3379,12.7406-7.3828"/></g><path id="s" class="t" d="M45.5,24c0,11.8741-9.6259,21.5-21.5,21.5S2.5,35.8741,2.5,24,12.1259,2.5,24,2.5s21.5,9.6259,21.5,21.5Z"/></g></svg>
